icons-rebrand/svg/battery-low-bold.svg

<svg width="32" height="32" viewBox="0 0 32 32" fill="none" xmlns="http://www.w3.org/2000/svg">
<path d="M25 6H11C9.67441 6.00159 8.40356 6.52888 7.46622 7.46622C6.52888 8.40356 6.00159 9.67441 6 11V12H5C4.20459 12.0008 3.44199 12.3171 2.87956 12.8796C2.31712 13.442 2.00079 14.2046 2 15V17C2.00079 17.7954 2.31712 18.558 2.87956 19.1204C3.44199 19.6829 4.20459 19.9992 5 20H6V21C6.00159 22.3256 6.52888 23.5964 7.46622 24.5338C8.40356 25.4711 9.67441 25.9984 11 26H25C26.3256 25.9984 27.5964 25.4711 28.5338 24.5338C29.4711 23.5964 29.9984 22.3256 30 21V11C29.9984 9.67441 29.4711 8.40356 28.5338 7.46622C27.5964 6.52888 26.3256 6.00159 25 6ZM6 18H5C4.73478 18 4.48043 17.8946 4.29289 17.7071C4.10536 17.5196 4 17.2652 4 17V15C4 14.7348 4.10536 14.4804 4.29289 14.2929C4.48043 14.1054 4.73478 14 5 14H6V18ZM28 21C27.9992 21.7954 27.6829 22.558 27.1204 23.1204C26.558 23.6829 25.7954 23.9992 25 24H11C10.2046 23.9992 9.44199 23.6829 8.87956 23.1204C8.31712 22.558 8.00079 21.7954 8 21V11C8.00079 10.2046 8.31712 9.44199 8.87956 8.87956C9.44199 8.31712 10.2046 8.00079 11 8H25C25.7954 8.00079 26.558 8.31712 27.1204 8.87956C27.6829 9.44199 27.9992 10.2046 28 11V21Z" fill="#0F0F0F"/>
<path d="M23 10.0139C22.8686 10.0135 22.7384 10.0391 22.6169 10.0892C22.4953 10.1393 22.385 10.213 22.292 10.3059C22.1991 10.3989 22.1254 10.5093 22.0753 10.6308C22.0252 10.7523 21.9996 10.8825 22 11.0139V21.0139C22 21.2791 22.1054 21.5335 22.2929 21.721C22.4804 21.9086 22.7348 22.0139 23 22.0139C23.2652 22.0139 23.5196 21.9086 23.7071 21.721C23.8946 21.5335 24 21.2791 24 21.0139V11.0139C24 10.7487 23.8946 10.4944 23.7071 10.3068C23.5196 10.1193 23.2652 10.0139 23 10.0139Z" fill="#0F0F0F"/>
</svg>

<svg width="32" height="32" viewBox="0 0 32 32" fill="none" xmlns="http://www.w3.org/2000/svg"><path d="M25 6H11a5.006 5.006 0 0 0-5 5v1H5a3.003 3.003 0 0 0-3 3v2a3.003 3.003 0 0 0 3 3h1v1a5.006 5.006 0 0 0 5 5h14a5.006 5.006 0 0 0 5-5V11a5.006 5.006 0 0 0-5-5zM6 18H5a1 1 0 0 1-1-1v-2a1 1 0 0 1 1-1h1v4zm22 3a3.003 3.003 0 0 1-3 3H11a3.003 3.003 0 0 1-3-3V11a3.003 3.003 0 0 1 3-3h14a3.003 3.003 0 0 1 3 3v10z" fill="#0F0F0F"/><path d="M23 10.014a.997.997 0 0 0-1 1v10a1 1 0 0 0 2 0v-10a1 1 0 0 0-1-1z" fill="#0F0F0F"/></svg>
